icons/svg/icons8/tragedy_mask.svg

<svg width="26" height="26" viewBox="0 0 26 26" fill="none" xmlns="http://www.w3.org/2000/svg">
<g clip-path="url(#clip0)">
<path d="M12.998 0.195007C4.13305 0.195007 2.12305 2.97601 2.12305 4.07001C2.12305 23.27 11.396 24.918 12.976 24.918C14.552 24.918 23.828 23.132 23.828 4.07001C23.827 3.02901 21.863 0.195007 12.998 0.195007ZM12.622 15.188C16.182 15.188 18.071 19.809 18.071 19.809C18.071 19.809 15.091 17.781 12.622 17.781C10.152 17.781 7.17405 19.809 7.17405 19.809C7.17405 19.809 9.06305 15.188 12.622 15.188ZM16.94 10.845C14.836 10.144 14.18 7.19301 14.18 7.19301C14.18 7.19301 16.295 7.41901 17.837 7.86901C19.641 8.39501 20.968 9.23701 20.968 9.23701C20.968 9.23701 18.47 11.354 16.94 10.845ZM5.03105 9.23601C5.03105 9.23601 6.35805 8.39401 8.16205 7.86801C9.70405 7.41801 11.819 7.19201 11.819 7.19201C11.819 7.19201 11.163 10.143 9.05905 10.844C7.53005 11.354 5.03105 9.23601 5.03105 9.23601Z" fill="#333333"/>
</g>
<defs>
<clipPath id="clip0">
<rect width="26" height="26" fill="white"/>
</clipPath>
</defs>
</svg>

<?xml version="1.0" encoding="utf-8"?>
<!-- Generator: Adobe Illustrator 15.0.0, SVG Export Plug-In . SVG Version: 6.00 Build 0)  -->
<!DOCTYPE svg PUBLIC "-//W3C//DTD SVG 1.1//EN" "http://www.w3.org/Graphics/SVG/1.1/DTD/svg11.dtd">
<svg version="1.1" id="Layer_1" xmlns="http://www.w3.org/2000/svg" xmlns:xlink="http://www.w3.org/1999/xlink" x="0px" y="0px"
	 width="26px" height="26px" viewBox="0 0 26 26" enable-background="new 0 0 26 26" xml:space="preserve">
<rect x="902" y="1469" fill="#333333" width="26" height="2"/>
<rect x="902" y="1489" fill="#333333" width="26" height="2"/>
<rect x="906" y="1474" fill="#333333" width="18" height="2"/>
<rect x="902" y="1479" fill="#333333" width="26" height="2"/>
<rect x="906" y="1484" fill="#333333" width="18" height="2"/>
<rect x="902" y="1467" fill="none" width="26" height="26"/>
<rect fill="none" width="26" height="26"/>
<path fill="#333333" d="M12.998,0.195c-8.865,0-10.875,2.781-10.875,3.875c0,19.2,9.273,20.848,10.853,20.848
	c1.576,0,10.852-1.786,10.852-20.848C23.827,3.029,21.863,0.195,12.998,0.195z M12.622,15.188c3.56,0,5.449,4.621,5.449,4.621
	s-2.98-2.028-5.449-2.028c-2.47,0-5.448,2.028-5.448,2.028S9.063,15.188,12.622,15.188z M16.94,10.845
	c-2.104-0.701-2.76-3.652-2.76-3.652s2.115,0.226,3.657,0.676c1.804,0.526,3.131,1.368,3.131,1.368S18.47,11.354,16.94,10.845z
	 M5.031,9.236c0,0,1.327-0.842,3.131-1.368c1.542-0.45,3.657-0.676,3.657-0.676s-0.656,2.951-2.76,3.652
	C7.53,11.354,5.031,9.236,5.031,9.236z"/>
</svg>
